X:661
T: WENN ICH NOCH LEDIG WAER
N: E0611
O: Europa, Mitteleuropa, Deutschland; Frankreich, Elsass
R: Liebes - Lied, Scherz - Lied
M: 3/4
L: 1/4
K: G
 | ddB | eed |
ccA | ddB |
ddB | eed |
cAd | B2z

@@@ Tune index: 4311
